X:1
T:Away in a Manger
T:Away in a Manger
T:James Ramsey Murray, 1887
T:Anonymous, 1885
T:Public Domain Courtesy of the Cyber Hymnal™
C:James Ramsey Murray, 1887
Z:Public Domain
Z:Courtesy of the Cyber Hymnal™
%%score 1 2
L:1/8
Q:1/4=115
M:4/4
K:F
V:1 treble 
V:2 bass 
V:1
 [Fc]2 | [Fc]3 [GB] [FA]2 | [FA]2 [CG]2 [CF]2 | [DF]2 [CE]2 [B,D]2 | [A,C]4 [A,C]2 | %5
w: 1.~A-|way in a|man- ger, no|crib for a|bed, The|
w: 2.~The|cat- tle are|low- ing, the|Ba- by a-|wakes, But|
w: 3.~Be|near me, Lord|Je- sus, I|ask Thee to|stay Close|
 [B,C]3 [B,D] [B,C]2 | [B,C]2 [B,G]2 [B,E]2 | [B,D]2 [A,C]2 [CF]2 | [FA]4 [Fc]2 | %9
w: lit- tle Lord|Je- sus laid|down His sweet|head. The|
w: lit- tle Lord|Je- sus, no|cry- ing He|makes; I|
w: by me for-|ev- er, and|love me, I|pray; Bless|
 [Fc]3 [GB] [FA]2 | [FA]2 [CG]2 [CF]2 | [DF]2 [CE]2 [B,D]2 | [A,C]4 C2 | [EB]3 [FA] [EG]2 | %14
w: stars in the|sk- y looked|down where He|lay, The|lit- tle Lord|
w: love Thee, Lord|Je- sus, look|down from the|sky And|stay by my|
w: all the dear|child- ren in|Thy ten- der|care, And|fit us for|
 [FA]2 [CG]2 [CF]2 | [DG]2 [B,D]2 [CE]2 | [CF]6 |] %17
w: Je- sus, a-|sleep on the|hay.|
w: cra- dle til|morn- ing is|nigh.|
w: heav- en to|live with Thee|there.|
V:2
 [F,A,]2 | [F,A,]3 [F,D] [F,C]2 | [F,C]2 [F,B,]2 [F,A,]2 | [B,,B,]2 [B,,F,]2 [B,,F,]2 | %4
 [F,,F,]4 [F,,F,]2 | [C,E,]3 [C,E,] [C,E,]2 | [C,E,]2 [C,E,]2 [C,G,]2 | F,2 F,2 [F,A,]2 | %8
 [F,C]4 [F,A,]2 | [F,A,]3 [F,D] [F,C]2 | ([F,C]2 [F,B,]2) [F,A,]2 | [B,,B,]2 [B,,F,]2 [B,,F,]2 | %12
 [F,,F,]4 [A,,F,]2 | [C,G,]3 [C,C] [C,C]2 | [F,C]2 [F,B,]2 [F,A,]2 | [B,,G,]2 [G,,G,]2 [C,B,]2 | %16
 [F,A,]6 |] %17

